!!!OTL-incipit: ES JAGT EIN JAEGER GESCHWINDE DORT OBEN VOR DEM HOLZ
!!!ARE: Europa, Mitteleuropa, Deutschland
!!!SCT: Z0210
!!!TXL: @@DE
!!!YEM: Copyright 1995, estate of Helmut Schaffrath.
**kern	**text
*ICvox	*
*M3/8	*
*k[b-]	*
*F:	*
!LO:TX:a:t=Altdeutſch.	!
!LO:TX:a:t=Jägerlied aus dem ſechsʒehnten Jahrhundert.	!
{8c	Es
=1	=1
4f	jagt
8g	ein
=2	=2
8a	Jä-
8f	-ger
8cc	ge-
=3	=3
(4.cc	-ſchwin-
=4	=4
8b-/	.
8a	.
8g)	.
=5	=5
4f}	-de
{8g	dort
=6	=6
4a	o-
8bn	-ben
=7	=7
4cc	vor
8bn	dem
=8	=8
4cc}	Holʒ,
{8c	Mit
=9	=9
4f	ſei-
8g	-nen
=10	=10
8a	ſchnel-
8f	.
8cc	-len
=11	=11
(4.cc	Win-
=12	=12
8b-/	.
8a	.
8g)	.
=13	=13
4f}	-den
{8g	fand
=14	=14
4a	er
8bn	ein
=15	=15
4cc	Wild,
8bn	was
=16	=16
8cc	ſtolʒ,
8r}	.
{8b-	auf
=17	=17
4b-	ei-
8g	-ner
=18	=18
8.a	wei-
(16gL	-ten
16a	.
16b-J)	.
=19	=19
(4cc	Hai-
8b-)	.
=20	=20
(8.cc	-den,
16b-)}	.
{8cc	da
=21	=21
4f	er
8f	das
=22	=22
[4.g	Wild
=23	=23
(8g]	.
8e)	.
8d	er-
=24	=24
4c}	-ſach,
{8c	mit
=25	=25
4f	ſei-
8f	-nen
=26	=26
4g	Win-
8f	-den
=27	=27
(8.a	bei-
16g	.
8a)	.
=28	=28
4.f}	-den
=29	=29
{(<8.a	hetʒt
16b-)	.
8cc	er
=30	=30
(8.a	hin-
16f)	.
8g	-ten
=31	=31
4.f}	nach.
=32	=32
{4cc	Vom
8cc	G'ſpür
=33	=33
8.g	will
16a	ich
8b-/	nit
=34	=34
(8cc	ſchei-
4a)	.
=35	=35
4g}	-den,
{8a	der-
=36	=36
4cc	-ſel-
8b-	-big
=37	=37
(8.a	Jä-
16b-/)	.
8g	-ger
=38	=38
4f}	ſprach.
==	==
!!!AGN: Jaeger - Lied
!!!ONB: ESAC (Essen Associative Code) Database: ZUCCAL
!!!AMT: simple triple
!!!AIN: vox
!!!EED: Helmut Schaffrath
!!!EEV: 1.0
!!!RDF**kern: <= below
!!!GTL: III. Soldaten-, Jaeger-, Schiffer-, Fuhrmanns- und Handwerks-Lieder.
!!!URL-scan: https://www.digitale-sammlungen.de/de/view/bsb11160571?page=390
!!!ENC: Anna Maria Matuszewska
!!!EEV: 2025/01/29
*-	*-
